X:1
T:Ballybay
M:4/4
L:1/8
K:C
 z6 EF| GE CD E3 F| GE CD E D2 E| GE CD E2 EF| GA GF E C2 A| cc cc B3 B|\
 cc cc BG GG| cc cB AA AA| GA GF EC EF| GE CD E3 F| GE CD ED DE| GE CD E3 F|\
G-A GF EC C2| z8|
